src/ui/assets/img/transactions/t-masstransfer-receive-48.svg

<svg width="48" height="48" viewBox="0 0 48 48" fill="none" xmlns="http://www.w3.org/2000/svg">
    <circle r="24" transform="matrix(1 0 0 -1 24 24)" fill="#81C926" fill-opacity="0.1"/>
    <path fill-rule="evenodd" clip-rule="evenodd" d="M24 39C15.7157 39 9 32.2843 9 24C9 15.7157 15.7157 9 24 9C32.2843 9 39 15.7157 39 24C39 27.9782 37.4196 31.7936 34.6066 34.6066C31.7936 37.4196 27.9782 39 24 39ZM24 10.2C16.3785 10.2 10.2 16.3785 10.2 24C10.2 31.6215 16.3785 37.8 24 37.8C31.6215 37.8 37.8 31.6215 37.8 24C37.7915 16.382 31.618 10.2085 24 10.2ZM27.1056 29.3582C27.3377 29.5897 27.341 29.9639 27.1129 30.1993L24.4727 33.1993C24.2377 33.4336 23.8567 33.4336 23.6217 33.1993L20.9815 30.1993C20.7534 29.9639 20.7566 29.5897 20.9888 29.3582C21.2209 29.1268 21.5963 29.1235 21.8325 29.3509L23.4453 31.3267V22.7251C23.4453 22.3938 23.7148 22.1251 24.0472 22.1251C24.3796 22.1251 24.649 22.3938 24.649 22.7251V31.3267L26.2619 29.3509C26.498 29.1235 26.8734 29.1268 27.1056 29.3582ZM34.3386 24.378C34.3334 24.0502 34.0664 23.7879 33.7386 23.7884C33.4108 23.7889 33.1431 24.0521 33.1369 24.3798L33.3935 26.9174L28.6371 22.1609C28.4028 21.9266 28.0223 21.9272 27.7873 22.1623C27.5522 22.3973 27.5516 22.7778 27.7859 23.0121L32.5424 27.7685L30.0048 27.5119C29.6771 27.5181 29.4139 27.7858 29.4134 28.1136C29.4129 28.4414 29.6752 28.7084 30.003 28.7136L33.9912 28.968C34.323 28.9674 34.5924 28.698 34.593 28.3662L34.3386 24.378ZM18.5402 28.1601C18.5407 28.4879 18.2784 28.7548 17.9506 28.76L13.9624 29.0144C13.6306 29.0138 13.3612 28.7444 13.3606 28.4126L13.615 24.4244C13.6202 24.0966 13.8871 23.8343 14.2149 23.8348C14.5427 23.8354 14.8105 24.0985 14.8167 24.4263L14.56 26.9638L19.3164 22.2074C19.5508 21.9731 19.9313 21.9737 20.1663 22.2087C20.4013 22.4437 20.4019 22.8242 20.1676 23.0586L15.4112 27.815L17.9487 27.5583C18.2765 27.5645 18.5396 27.8323 18.5402 28.1601ZM24 14.8125C22.4467 14.8125 21.1875 16.0717 21.1875 17.625C21.1875 19.1783 22.4467 20.4375 24 20.4375C25.5533 20.4375 26.8125 19.1783 26.8125 17.625C26.8125 16.0717 25.5533 14.8125 24 14.8125ZM25.6875 17.625C25.6875 16.693 24.932 15.9375 24 15.9375C23.068 15.9375 22.3125 16.693 22.3125 17.625C22.3125 18.557 23.068 19.3125 24 19.3125C24.932 19.3125 25.6875 18.557 25.6875 17.625Z" fill="#81C926"/>
</svg>

<svg fill="none" height="48" width="48" xmlns="http://www.w3.org/2000/svg"><g fill="#81c926"><circle fill-opacity=".1" r="24" transform="matrix(1 0 0 -1 24 24)"/><path clip-rule="evenodd" d="M24 39c-8.284 0-15-6.716-15-15S15.716 9 24 9s15 6.716 15 15a15 15 0 0 1-15 15zm0-28.8c-7.622 0-13.8 6.178-13.8 13.8S16.378 37.8 24 37.8 37.8 31.622 37.8 24c-.009-7.618-6.182-13.792-13.8-13.8zm3.106 19.158a.599.599 0 0 1 .007.841l-2.64 3a.603.603 0 0 1-.851 0l-2.64-3a.599.599 0 0 1 .007-.84.603.603 0 0 1 .844-.008l1.612 1.976v-8.602a.601.601 0 0 1 1.204 0v8.602l1.613-1.976a.603.603 0 0 1 .844.007zm7.233-4.98a.6.6 0 0 0-1.202.002l.256 2.537-4.756-4.756a.6.6 0 0 0-.851.851l4.756 4.756-2.537-.256c-.328.006-.591.274-.592.602s.262.594.59.6l3.988.254c.332 0 .601-.27.602-.602zM18.54 28.16a.599.599 0 0 1-.59.6l-3.988.254a.603.603 0 0 1-.601-.601l.254-3.989a.599.599 0 0 1 .6-.59.605.605 0 0 1 .602.592l-.257 2.538 4.756-4.757a.601.601 0 0 1 .852.852l-4.757 4.756 2.538-.257c.328.007.59.274.591.602zM24 14.812a2.813 2.813 0 1 0 0 5.626 2.813 2.813 0 0 0 0-5.625zm1.688 2.813a1.687 1.687 0 1 0-3.375 0 1.687 1.687 0 0 0 3.375 0z" fill-rule="evenodd"/></g></svg>
